X: 16
T: Ana Halach Dodech
O: Israel
C: Gil Aldema 1954
D: PotPourri Israeli folk dances
M: 2/4
L: 1/8
K: F
Q: 1/4=144
%%MIDI program 71 Clarinet
%%MIDI chordprog 24 Acoustic Guitar
%%MIDI bassprog 45 Pizzicato Strings
"F"FF2C |DCDC|FGAB    |AGG2|\
"Gm"DG2A|BAcA|"F"GFFF-|F2z2::
"F"c4   |BABc|A3G     |FGAc|\
"Bb"B3A |GABc|"F"AzAz |z4  :|


